logos/mithril.svg

<?xml version="1.0" encoding="UTF-8"?>
<svg width="256px" height="246px" viewBox="0 0 256 246" version="1.1" xmlns="http://www.w3.org/2000/svg" xmlns:xlink="http://www.w3.org/1999/xlink" preserveAspectRatio="xMidYMid">
    <title>Mithril</title>
    <g>
        <path d="M213.424178,160.074863 C213.309781,207.381332 174.784954,245.838867 127.451568,245.838867 C80.0441606,245.838867 41.4722288,207.266935 41.4722288,159.859527 L41.4991457,159.422128 L41.4991457,159.422128 C16.6682964,144.32847 0,117.095287 0,85.9793392 C0,38.5652025 38.5652025,0 85.9793392,0 C101.241227,0 115.554294,4.0442657 127.996635,11.0493915 C140.438977,4.0442657 154.758773,0 170.020661,0 C217.434797,0 256,38.5719318 256,85.9793392 C256,117.546145 238.853928,145.122519 213.424178,160.074863 Z M127.996635,29.1173672 C112.438662,40.6445338 101.712273,58.3289436 99.5992955,78.5906474 C108.347291,75.5759535 117.694188,73.8667298 127.451568,73.8667298 C137.639618,73.8667298 147.370081,75.737455 156.434351,79.0078595 C154.429041,58.5711958 143.662277,40.7252845 127.996635,29.1173672 Z M57.3128302,150.667403 C66.0810136,154.563625 75.7711011,156.78427 85.9793392,156.78427 C95.9049497,156.78427 105.352785,154.718398 113.93255,151.010593 C99.7069632,138.723024 89.5121836,121.906685 85.7034408,102.78222 C70.4751991,113.966196 59.8766659,131.044975 57.3128302,150.667403 Z M127.451568,89.0478669 C117.647084,89.0478669 108.300187,91.0531767 99.8011724,94.6802303 C102.230423,114.383408 112.781852,131.569855 127.996635,142.841311 C143.090293,131.657335 153.581158,114.666036 156.124806,95.1647346 C147.349894,91.2550535 137.659806,89.0478669 127.451568,89.0478669 Z M142.060721,151.017323 C150.640486,154.718398 160.088321,156.791 170.013932,156.791 C179.818416,156.791 189.165313,154.78569 197.671056,151.158636 C195.275451,131.744815 184.999921,114.793891 170.155245,103.502247 C166.238835,122.337355 156.111348,138.877796 142.060721,151.017323 Z M127.451568,230.664459 C164.004731,230.664459 194.171858,202.825645 197.879662,167.24149 C189.131667,170.249455 179.78477,171.965408 170.020661,171.965408 C154.758773,171.965408 140.438977,167.921142 127.996635,160.916016 C115.561023,167.921142 101.247956,171.965408 85.9793392,171.965408 C75.7912888,171.965408 66.0608259,170.094682 56.9965565,166.831007 C60.5159425,202.610309 90.7638199,230.664459 127.451568,230.664459 Z M85.9793392,15.1676787 C46.9296323,15.1676787 15.1676787,46.9296323 15.1676787,85.9793392 C15.1676787,108.979839 26.2372578,129.389585 43.2756618,142.336619 C48.282207,118.239256 63.4566149,97.8766133 84.0480509,85.7572747 C84.1220724,59.8699367 95.7232605,36.6810188 113.939279,20.9480851 C105.352785,17.2335515 95.9116789,15.1676787 85.9793392,15.1676787 Z M170.020661,15.1676787 C160.09505,15.1676787 150.647215,17.2335515 142.06745,20.9413558 C160.337303,36.7213942 171.972137,59.997792 171.972137,85.9726099 L171.94522,86.4100097 L171.94522,86.4100097 C192.180007,98.7177667 206.997766,119.060221 211.768788,143.043188 C229.352259,130.143259 240.832321,109.40378 240.832321,85.9793392 C240.825592,46.9363615 209.063639,15.1676787 170.020661,15.1676787 Z" fill="#010002"></path>
    </g>
</svg>

<svg preserveAspectRatio="xMidYMid" viewBox="0 0 256 246" xmlns="http://www.w3.org/2000/svg">
  <path fill="#010002" d="M213.424 160.075c-.114 47.306-38.639 85.764-85.972 85.764-47.408 0-85.98-38.572-85.98-85.98l.027-.437C16.67 144.328 0 117.095 0 85.98 0 38.565 38.565 0 85.98 0c15.261 0 29.574 4.044 42.017 11.05C140.439 4.043 154.759 0 170.02 0 217.435 0 256 38.572 256 85.98c0 31.566-17.146 59.143-42.576 74.095ZM127.997 29.117c-15.558 11.528-26.285 29.212-28.398 49.474 8.748-3.015 18.095-4.724 27.853-4.724 10.188 0 19.918 1.87 28.982 5.14-2.005-20.436-12.772-38.282-28.437-49.89Zm-70.684 121.55c8.768 3.897 18.458 6.117 28.666 6.117a70.29 70.29 0 0 0 27.954-5.773c-14.226-12.288-24.42-29.104-28.23-48.229-15.228 11.184-25.826 28.263-28.39 47.885Zm70.139-61.62a70.28 70.28 0 0 0-27.65 5.633c2.428 19.703 12.98 36.89 28.195 48.161 15.093-11.184 25.584-28.175 28.128-47.676-8.775-3.91-18.465-6.117-28.673-6.117Zm14.609 61.97a70.406 70.406 0 0 0 27.953 5.774 70.338 70.338 0 0 0 27.657-5.632c-2.396-19.414-12.671-36.365-27.516-47.657-3.916 18.835-14.044 35.376-28.094 47.515Zm-14.61 79.647c36.554 0 66.72-27.838 70.429-63.423-8.748 3.008-18.095 4.724-27.86 4.724-15.261 0-29.581-4.044-42.023-11.049-12.436 7.005-26.749 11.05-42.018 11.05-10.188 0-19.918-1.871-28.982-5.135 3.519 35.78 33.767 63.833 70.455 63.833ZM85.98 15.168c-39.05 0-70.811 31.762-70.811 70.811 0 23 11.07 43.41 28.108 56.358 5.006-24.098 20.18-44.46 40.772-56.58.074-25.887 11.675-49.076 29.891-64.809a70.211 70.211 0 0 0-27.96-5.78Zm84.042 0a70.29 70.29 0 0 0-27.954 5.773c18.27 15.78 29.905 39.057 29.905 65.032l-.027.437c20.235 12.308 35.053 32.65 39.824 56.633 17.583-12.9 29.063-33.64 29.063-57.064-.006-39.043-31.768-70.811-70.811-70.811Z"/>
</svg>
